assets/icons/location.svg

<svg fill="none" height="24" viewBox="0 0 24 24" width="24" xmlns="http://www.w3.org/2000/svg"><g fill="#000"><path d="m11.4377 0h1.125c.075.0164062.1495.0365625.2255.046875.4847.073125.9806.101719 1.4531.222187 3.6534.932348 6.1167 3.180468 7.3214 6.756098.5297 1.57125.6586 3.18754.2236 4.81404-.4012 1.5-1.0631 2.8931-1.8047 4.2497-1.1053 2.0222-2.385 3.9338-3.75 5.7881-.7228.9844-1.6912 1.6275-2.8753 1.9327-.323.083-.6562.128-.9844.1903h-.7936c-.0492-.0203-.1002-.036-.1523-.0469-1.46157-.1622-2.68126-.7997-3.56251-1.9687-.82593-1.0955-1.59375-2.2374-2.34375-3.3881-1.15406-1.7733-2.19422-3.6094-2.94234-5.6007-.50813-1.3519-.74344-2.7342-.54797-4.1756.22969-1.69828.81422-3.26109 1.83422-4.64812 1.64125-2.22813 3.82875-3.57188 6.56245-4.031255.3347-.0553125.6741-.09375 1.0116-.140625zm8.4797 9.9375c-.0581-.45562-.0937-.915-.1781-1.36641-.7547-4.11796-4.7953-7.01062-8.911-6.3075-3.18746.54375-5.32121 2.39954-6.35434 5.46516-.43687 1.29656-.53625 2.63295-.0675 3.95245.25164.7287.54222 1.4433.87047 2.1408 1.15313 2.3907 2.61844 4.5938 4.19016 6.7252 1.28671 1.7447 3.82221 1.7189 5.09391-.0347.6641-.9156 1.3056-1.8472 1.9247-2.7947 1.0781-1.6458 2.0808-3.3347 2.8059-5.1722.3305-.8362.607-1.6879.6258-2.6081z"/><path d="m11.9762 13.9791c-1.0567-.008-2.06695-.4355-2.8085-1.1884-.74154-.7529-1.15363-1.7695-1.14561-2.8262.00802-1.05672.43549-2.06697 1.18837-2.80852.75289-.74154 1.76954-1.15363 2.82624-1.14561 2.1839.01312 3.9609 1.81875 3.9464 4.00873-.0003.5239-.1046 1.0425-.3066 1.5259-.2021.4834-.498.9218-.8706 1.2901s-.8146.659-1.3003.8554c-.4857.1963-1.0055.2944-1.5294.2886zm.0094-1.9711c.2642.0012.5261-.0496.7706-.1496.2446-.1.467-.2472.6547-.4332s.3369-.4071.4391-.6507.1554-.505.1566-.7692c.0012-.26422-.0496-.52607-.1496-.77062s-.2472-.46701-.4332-.65468-.4071-.33687-.6507-.43909c-.2436-.10221-.505-.15544-.7692-.15664-1.0946-.00844-2.01564.90562-2.0208 2.00672-.00038.53251.21 1.04361.5852 1.42151.3752.378.8848.592 1.4173.5955z"/></g></svg>

<svg width="24" height="24" viewBox="0 0 24 24" fill="none" xmlns="http://www.w3.org/2000/svg">
<path d="M11.4377 0H12.5627C12.6377 0.0164062 12.7122 0.0365625 12.7882 0.046875C13.2729 0.12 13.7688 0.148594 14.2413 0.269062C17.8947 1.20141 20.358 3.44953 21.5627 7.02516C22.0924 8.59641 22.2213 10.2127 21.7863 11.8392C21.3851 13.3392 20.7232 14.7323 19.9816 16.0889C18.8763 18.1111 17.5966 20.0227 16.2316 21.877C15.5088 22.8614 14.5404 23.5045 13.3563 23.8097C13.0333 23.8927 12.7001 23.9377 12.3719 24H11.5783C11.5291 23.9797 11.4781 23.964 11.426 23.9531C9.96443 23.7909 8.74474 23.1534 7.86349 21.9844C7.03756 20.8889 6.26974 19.747 5.51974 18.5963C4.36568 16.823 3.32552 14.9869 2.5774 12.9956C2.06927 11.6437 1.83396 10.2614 2.02943 8.82C2.25912 7.12172 2.84365 5.55891 3.86365 4.17188C5.5049 1.94375 7.6924 0.6 10.4261 0.140625C10.7608 0.0853125 11.1002 0.046875 11.4377 0ZM19.9174 9.9375C19.8593 9.48188 19.8237 9.0225 19.7393 8.57109C18.9846 4.45313 14.944 1.56047 10.8283 2.26359C7.64084 2.80734 5.50709 4.66313 4.47396 7.72875C4.03709 9.02531 3.93771 10.3617 4.40646 11.6812C4.6581 12.4099 4.94868 13.1245 5.27693 13.822C6.43006 16.2127 7.89537 18.4158 9.46709 20.5472C10.7538 22.2919 13.2893 22.2661 14.561 20.5125C15.2251 19.5969 15.8666 18.6653 16.4857 17.7178C17.5638 16.072 18.5665 14.3831 19.2916 12.5456C19.6221 11.7094 19.8986 10.8577 19.9174 9.9375Z" fill="black"/>
<path d="M11.9762 13.9791C10.9195 13.9711 9.90925 13.5436 9.1677 12.7907C8.42616 12.0378 8.01407 11.0212 8.02209 9.9645C8.03011 8.90778 8.45758 7.89753 9.21046 7.15598C9.96335 6.41444 10.98 6.00235 12.0367 6.01037C14.2206 6.02349 15.9976 7.82912 15.9831 10.0191C15.9828 10.543 15.8785 11.0616 15.6765 11.545C15.4744 12.0284 15.1785 12.4668 14.8059 12.8351C14.4333 13.2034 13.9913 13.4941 13.5056 13.6905C13.0199 13.8868 12.5001 13.9849 11.9762 13.9791ZM11.9856 12.008C12.2498 12.0092 12.5117 11.9584 12.7562 11.8584C13.0008 11.7584 13.2232 11.6112 13.4109 11.4252C13.5986 11.2392 13.7478 11.0181 13.85 10.7745C13.9522 10.5309 14.0054 10.2695 14.0066 10.0053C14.0078 9.74108 13.957 9.47923 13.857 9.23468C13.757 8.99013 13.6098 8.76767 13.4238 8.58C13.2378 8.39233 13.0167 8.24313 12.7731 8.14091C12.5295 8.0387 12.2681 7.98547 12.0039 7.98427C10.9093 7.97583 9.98826 8.88989 9.9831 9.99099C9.98272 10.5235 10.1931 11.0346 10.5683 11.4125C10.9435 11.7905 11.4531 12.0045 11.9856 12.008Z" fill="black"/>
</svg>
